X:108
T:Ge ho Dobin
M:6/8
L:1/8
B:Thompson's Compleat Collection of 200 Favourite Country Dances, vol. 1 (London, 1757)
Z:Transcribed and edited by Fynnian Titford-Mock, 2007
Z:abc's:AK/Fiddler's Companion
K:D
D|F>GA B>cA|B>dB A>Bc|d>ef B>cd|e>cA d2::c/d/|e>fe e>cA|
e>cA A>FG|A>BA A>GF|G>EF G>FG|F2A FDF|G2B GEG|F>FA G>FE|D2d D2:|

